X: 29272
T: New Mown Meadows, The
R: reel
M: 4/4
K: Gmajor
|:A2D2 EDEG|AcBG AEE2|A2D2EDEG|ABGE G4|
A2D2 EDEG|AcBG AEE2|c2cA B2BA|GAGEG4:|
|:Bdde dBAG|AcBG AEEG|Bdde dBAB|GAGE G4|
BddB eBdB|AcBG AEE2|c2cA B2BA|1 GAGE G4:|2 GAGE G2Bc||

